src/images/single-assets/HBR.svg

<svg xmlns="http://www.w3.org/2000/svg" width="7119" height="7119" fill="none"><path fill="#fff" stroke="#37166E" stroke-miterlimit="10" stroke-width="2" d="M3559.5 6480.01c1612.95 0 2920.51-1307.56 2920.51-2920.51 0-1612.96-1307.56-2920.516-2920.51-2920.516-1612.96 0-2920.516 1307.556-2920.516 2920.516 0 1612.95 1307.556 2920.51 2920.516 2920.51Z"/><path fill="#000636" d="M2785.27 2134.52v-5.88c-3.92 3.92-3.92 3.92 0 5.88"/><path fill="url(#a)" d="M3079.28 2650.03s-525.3-82.33-625.26-527.26v2871.51c101.92-442.98 625.26-525.3 625.26-525.3 441.02-86.25 629.18 70.56 629.18 70.56V2579.46c0 1.96-188.16 158.77-629.18 70.57"/><path fill="url(#b)" d="M3941.71 2512.82s-605.66-96.04-721.3-607.62v3308.61c115.64-511.58 721.3-607.63 721.3-607.63 507.66-98 725.23 82.32 725.23 82.32v-2258s-219.53 180.32-725.23 82.32"/><defs><linearGradient id="a" x1="3721.31" x2="1967.23" y1="3559.5" y2="3559.5" gradientUnits="userSpaceOnUse"><stop stop-color="#030636"/><stop offset="1" stop-color="#6D02C2"/></linearGradient><linearGradient id="b" x1="4660.82" x2="2410.93" y1="3559.5" y2="3559.5" gradientUnits="userSpaceOnUse"><stop stop-color="#030636"/><stop offset="1" stop-color="#6D02C2"/></linearGradient></defs></svg>

<svg width="7119" height="7119" viewBox="0 0 7119 7119" fill="none" xmlns="http://www.w3.org/2000/svg">
<path d="M3559.5 6480.01C5172.45 6480.01 6480.01 5172.45 6480.01 3559.5C6480.01 1946.54 5172.45 638.984 3559.5 638.984C1946.54 638.984 638.984 1946.54 638.984 3559.5C638.984 5172.45 1946.54 6480.01 3559.5 6480.01Z" fill="white" stroke="#37166E" stroke-width="2" stroke-miterlimit="10"/>
<path d="M2785.27 2134.52V2128.64C2781.35 2132.56 2781.35 2132.56 2785.27 2134.52Z" fill="#000636"/>
<path d="M3079.28 2650.03C3079.28 2650.03 2553.98 2567.7 2454.02 2122.77V4994.28C2555.94 4551.3 3079.28 4468.98 3079.28 4468.98C3520.3 4382.73 3708.46 4539.54 3708.46 4539.54V2579.46C3708.46 2581.42 3520.3 2738.23 3079.28 2650.03Z" fill="url(#paint0_linear_4_501)"/>
<path d="M3941.71 2512.82C3941.71 2512.82 3336.05 2416.78 3220.41 1905.2V5213.81C3336.05 4702.23 3941.71 4606.18 3941.71 4606.18C4449.37 4508.18 4666.94 4688.5 4666.94 4688.5V2430.5C4666.94 2430.5 4447.41 2610.82 3941.71 2512.82Z" fill="url(#paint1_linear_4_501)"/>
<defs>
<linearGradient id="paint0_linear_4_501" x1="3721.31" y1="3559.5" x2="1967.23" y2="3559.5" gradientUnits="userSpaceOnUse">
<stop stop-color="#030636"/>
<stop offset="1" stop-color="#6D02C2"/>
</linearGradient>
<linearGradient id="paint1_linear_4_501" x1="4660.82" y1="3559.5" x2="2410.93" y2="3559.5" gradientUnits="userSpaceOnUse">
<stop stop-color="#030636"/>
<stop offset="1" stop-color="#6D02C2"/>
</linearGradient>
</defs>
</svg>
